X:18
T:Cairney Pyirn Lisl in Molo Las, 2\'ain
W:An Dair Jinn plday
Z:id:hn-slide-1
M:6/8
K:G
E2D 


*****************************


19100 2 1.0434978 

<starions:
~f3 agf|g2g B2g|1 a2e d2e|a2g f2a|ged cB^c|def g2g:|
|:a2a g2e|d2g f2d|B2d edc|BAB c3||
<end>



*****************************


19200 2 1.2319604 

<stard>
<start>
